X:12
%%newpage
T:Waiting for Nancy / Sandy Boys
T:Waiting For Nancy
C:anon.
S:Karl Moore - Peach Bottom String Band
Z:Converted from Nottingham Database format by Philip Rowe
F:http://abc.musicaviva.com/tunes/anon/waiting-for-nancy/waiting-for-nancy-1.abc
%Posted Oct 16th 1999 at abcusers by Philip Rowe in reply to a request from Rod
%Smith for "old time tunes". See "Done Gone" for more information.
M:C|
L:1/4
K:D
Q:1/2=110
A/A/|:"D"B/A/A/A/ B/A/A/A/|"D"B/A/A/A/"A"EE/F/|"A"GFE/D/E/F/|G/E/FEA/A/|
"D"B/A/A/A/ B/A/A/A/|"D"B/A/A/A/"A"EE/F/|"A"GFE/C3/2|"D"D2D::D|
"C"=C3/D/E3/F/|GFE/D/E/F/|"C"G/E/FE/D/E/F/|GFED|
"C"=C3/D/E3/F/|GFE/D/E/F/|"C"GF"A"E/^C3/|"D"D2D:|
W:
W:  From Musica Viva - http://www.musicaviva.com
W:  the Internet center for free sheet music downloads.
%%text 2015-01-12 fixed repeat
T:
